X:1068
T:Midnight On The Water 
C:Joe Buchanan's Scottish Tome - Page 650.1
I:650 1
R:Waltz
Z:Carl Allison
L:1/8
M:3/4
K:D
D<E | "D"FF (F>E) | "Bm"F2F2 (F>F) | "D" F2A2 (G>B) | "Bm"(A>F) D2 "A7"(D>E) |
"D"F2 (d3 B) | "Bm"(A2E2) "A7"(C>E) | "D"F2 (A>F) "A7"E>D | "D"D4 :|
((3ABc) | "D"d2 (dc) de | "A7"dc BA Bc | "Bm"d2 (dB) AF | "D"D4 ((3ABc) |
"D"e2e2 (ef) | "A7"e2e2 (de) | "D/F#"f2 (fa) fe | "A7"dc BA Bc |
"D"d2 (dc) de | "A7"dc BA Bc | "Bm"d2 (dB) AF | "D"D4 (D>E) |
"Bm"F2 "G"(d>B) | "D"(A2E2) "A7"(C>E) | "D"F2 (A>F) "A7"E>D | D4 :|

